build/images/rivals/Modal/modal_1/result.svg

<svg width="64" height="54" viewBox="0 0 64 54" fill="none" xmlns="http://www.w3.org/2000/svg">
<path d="M14.701 36.2016C15.3867 36.2016 15.9426 35.6457 15.9426 34.96C15.9426 34.2743 15.3867 33.7185 14.701 33.7185C14.0153 33.7185 13.4595 34.2743 13.4595 34.96C13.4595 35.6457 14.0153 36.2016 14.701 36.2016Z" fill="#141414"/>
<path d="M63.5679 24.589V24.4604C63.5679 21.5856 61.229 19.2466 58.3541 19.2466H43.4731C45.3867 15.9273 46.4199 12.2066 46.481 8.36011C46.4913 7.71499 46.4862 7.04902 46.4808 6.34394C46.4773 5.88841 46.4736 5.40669 46.4736 4.88622C46.4736 2.19614 44.2903 0.00689417 41.6041 0.000189742C41.1031 -0.0047765 39.4339 0.0777867 38.1206 1.44946C37.5228 2.07384 37.1099 2.86099 36.9265 3.72549C36.5716 5.3975 36.1289 6.82504 35.5729 8.0897C33.5353 12.7247 30.6314 16.5967 26.9421 19.5982C25.96 20.3972 24.9169 21.1339 23.8276 21.8032C23.4189 20.3307 22.0675 19.2465 20.4666 19.2465H1.24156C0.555846 19.2465 0 19.8024 0 20.488V52.5778C0 53.2634 0.555846 53.8193 1.24156 53.8193H20.4666C22.2885 53.8193 23.7875 52.4152 23.941 50.6326C26.3254 52.6925 29.3424 53.8193 32.5152 53.8193H58.3539C61.2289 53.8193 63.5679 51.4804 63.5679 48.6055C63.5679 47.016 62.853 45.5904 61.7276 44.6333C62.853 43.6762 63.5679 42.2506 63.5679 40.6609V40.5052C63.5679 38.9156 62.853 37.4901 61.7276 36.533C62.8529 35.5759 63.5679 34.1502 63.5679 32.5607V32.5337C63.5679 30.9441 62.853 29.5185 61.7276 28.5614C62.853 27.6044 63.5679 26.1787 63.5679 24.589ZM21.4718 23.8509C21.4718 23.853 21.4718 23.8551 21.4718 23.8573V50.3313C21.4718 50.8854 21.021 51.3363 20.4666 51.3363H15.9425V40.519C15.9425 39.8334 15.3867 39.2774 14.7009 39.2774C14.0152 39.2774 13.4594 39.8334 13.4594 40.519V51.3363H2.48312V21.7297H20.4666C21.0209 21.7297 21.4718 22.1807 21.4718 22.7349V23.8509ZM54.9152 29.803H58.3539C59.8597 29.803 61.0848 31.0279 61.0848 32.5337V32.5607C61.0848 34.0665 59.8597 35.2914 58.3539 35.2914H54.9152C54.2295 35.2914 53.6736 35.8474 53.6736 36.533C53.6736 37.2186 54.2295 37.7745 54.9152 37.7745H58.3539C59.8596 37.7745 61.0846 38.9995 61.0846 40.5052V40.6609C61.0846 42.1667 59.8596 43.3917 58.3538 43.3917H54.9151C54.2294 43.3917 53.6735 43.9477 53.6735 44.6333C53.6735 45.3189 54.2294 45.8748 54.9151 45.8748H58.3538C59.8595 45.8748 61.0845 47.0998 61.0845 48.6055C61.0845 50.1113 59.8595 51.3362 58.3537 51.3362H32.5153C29.7449 51.3362 27.1206 50.2773 25.1259 48.3544L23.9549 47.2254V24.6072C25.565 23.7101 27.0942 22.6755 28.5091 21.5244C32.5069 18.272 35.6483 14.088 37.846 9.08903C38.4712 7.66695 38.9649 6.0811 39.3555 4.24086C39.4442 3.8227 39.6322 3.46116 39.9142 3.16666C40.5253 2.52838 41.3242 2.48281 41.5391 2.48281C41.5611 2.48281 41.5755 2.48331 41.5915 2.48331C42.9141 2.48331 43.9902 3.56123 43.9903 4.88622C43.9903 5.41364 43.9941 5.9017 43.9977 6.36318C44.0029 7.05324 44.008 7.70506 43.9982 8.32075C43.9327 12.437 42.6147 16.3935 40.1866 19.7622C39.914 20.1404 39.8762 20.6391 40.0886 21.0539C40.3009 21.4689 40.7278 21.7297 41.1937 21.7297H58.3539C59.8596 21.7297 61.0846 22.9546 61.0846 24.4604V24.589H61.0848C61.0848 26.0948 59.8597 27.3198 58.3539 27.3198H54.9152C54.2295 27.3198 53.6736 27.8758 53.6736 28.5614C53.6736 29.247 54.2295 29.803 54.9152 29.803Z" fill="#141414"/>
</svg>

<svg width="64" height="54" fill="none" xmlns="http://www.w3.org/2000/svg"><path d="M14.701 36.202a1.242 1.242 0 100-2.484 1.242 1.242 0 000 2.484z" fill="#141414"/><path d="M63.568 24.589v-.129a5.22 5.22 0 00-5.214-5.213h-14.88A22.439 22.439 0 0046.48 8.36c.01-.645.005-1.311 0-2.016a164.15 164.15 0 01-.007-1.458A4.89 4.89 0 0041.604 0c-.5-.005-2.17.078-3.483 1.45a4.691 4.691 0 00-1.195 2.275c-.354 1.672-.797 3.1-1.353 4.365-2.038 4.635-4.942 8.507-8.63 11.508a28.959 28.959 0 01-3.115 2.205 3.494 3.494 0 00-3.361-2.556H1.242c-.686 0-1.242.555-1.242 1.241v32.09c0 .685.556 1.241 1.242 1.241h19.225a3.492 3.492 0 003.474-3.186 13.06 13.06 0 008.574 3.186h25.839a5.22 5.22 0 005.214-5.214 5.205 5.205 0 00-1.84-3.972 5.204 5.204 0 001.84-3.972v-.156c0-1.59-.715-3.015-1.84-3.972a5.204 5.204 0 001.84-3.972v-.027c0-1.59-.715-3.015-1.84-3.973a5.204 5.204 0 001.84-3.972zm-42.096-.738v26.48c0 .554-.451 1.005-1.005 1.005h-4.524V40.52a1.242 1.242 0 00-2.484 0v10.817H2.483V21.73h17.984c.554 0 1.005.45 1.005 1.005v1.116zm33.443 5.952h3.439a2.734 2.734 0 012.73 2.73v.028a2.734 2.734 0 01-2.73 2.73h-3.439a1.242 1.242 0 000 2.484h3.439a2.734 2.734 0 012.73 2.73v.156a2.734 2.734 0 01-2.73 2.73h-3.439a1.242 1.242 0 000 2.484h3.439a2.734 2.734 0 012.73 2.73 2.734 2.734 0 01-2.73 2.731H32.515a10.6 10.6 0 01-7.39-2.982l-1.17-1.129V24.607a31.588 31.588 0 004.554-3.083c3.998-3.252 7.14-7.436 9.337-12.435.625-1.422 1.119-3.008 1.51-4.848a2.18 2.18 0 01.558-1.074c.611-.639 1.41-.684 1.625-.684h.053a2.404 2.404 0 012.398 2.403c0 .528.004 1.016.008 1.477.005.69.01 1.342 0 1.958a20.03 20.03 0 01-3.811 11.441 1.241 1.241 0 001.007 1.968h17.16a2.734 2.734 0 012.73 2.73v.129a2.734 2.734 0 01-2.73 2.73h-3.439a1.242 1.242 0 000 2.484z" fill="#141414"/></svg>
